src/images/GeneFit/Watch1.svg

<svg fill="none" height="100" viewBox="0 0 100 100" width="100" xmlns="http://www.w3.org/2000/svg"><path d="m69.9474 47.619c6.9096 0 13.5361 2.7594 18.422 7.6711 4.8858 4.9116 7.6306 11.5733 7.6306 18.5194 0 6.9462-2.7448 13.6078-7.6306 18.5195-4.8859 4.9117-11.5124 7.671-18.422 7.671s-13.5362-2.7593-18.422-7.671-7.6307-11.5733-7.6307-18.5195c0-6.9461 2.7449-13.6078 7.6307-18.5194 4.8858-4.9117 11.5124-7.6711 18.422-7.6711zm-17.7632-47.619c2.8267 0 5.5375 1.12882 7.5363 3.13814 1.9987 2.00932 3.1216 4.73454 3.1216 7.57616v32.9714c-2.4689.5859-4.8557 1.4785-7.1053 2.6572v-35.6286c0-.94722-.3743-1.85562-1.0405-2.5254-.6662-.66977-1.5699-1.04604-2.5121-1.04604h-35.5263c-.9422 0-1.8458.37627-2.5121 1.04604-.6662.66978-1.0405 1.57818-1.0405 2.5254v73.8095c0 1.9714 1.5915 3.5714 3.5526 3.5714l25.9721.0048c1.3595 2.6238 3.0837 5.0286 5.1016 7.1429l-31.0737-.0048c-2.8267 0-5.5375-1.1288-7.53627-3.1381-1.99875-2.0094-3.12163-4.7346-3.12163-7.5762v-73.8095c0-2.84162 1.12288-5.56684 3.12163-7.57616 1.99877-2.00932 4.70957-3.13814 7.53627-3.13814zm-23.6889 73.8286 10.6626-.0238c0 2.4619.2842 4.8571.8242 7.1428l-11.4774.0238c-.9422.0013-1.8463-.3738-2.5134-1.0426-.6672-.6689-1.0427-1.5768-1.0439-2.524-.0013-.9472.3718-1.8562 1.0372-2.5268.6653-.6707 1.5684-1.0482 2.5107-1.0494zm36.7152-16.6857c-.6281 0-1.2305.2508-1.6747.6973s-.6937 1.0521-.6937 1.6836v19.0476c0 .6315.2495 1.2371.6937 1.6836s1.0466.6974 1.6747.6974h14.22c.6282 0 1.2306-.2509 1.6748-.6974.4441-.4465.6937-1.0521.6937-1.6836 0-.6314-.2496-1.237-.6937-1.6836-.4442-.4465-1.0466-.6973-1.6748-.6973h-11.8516v-16.6667c0-.6315-.2495-1.2371-.6936-1.6836-.4442-.4465-1.0466-.6973-1.6748-.6973z" fill="#ec8539"/></svg>

<svg width="100" height="100" viewBox="0 0 100 100" fill="none" xmlns="http://www.w3.org/2000/svg">
<path d="M69.9474 47.619C76.857 47.619 83.4835 50.3784 88.3694 55.2901C93.2552 60.2017 96 66.8634 96 73.8095C96 80.7557 93.2552 87.4173 88.3694 92.329C83.4835 97.2407 76.857 100 69.9474 100C63.0378 100 56.4112 97.2407 51.5254 92.329C46.6396 87.4173 43.8947 80.7557 43.8947 73.8095C43.8947 66.8634 46.6396 60.2017 51.5254 55.2901C56.4112 50.3784 63.0378 47.619 69.9474 47.619V47.619ZM52.1842 0C55.0109 0 57.7217 1.12882 59.7205 3.13814C61.7192 5.14746 62.8421 7.87268 62.8421 10.7143V43.6857C60.3732 44.2716 57.9864 45.1642 55.7368 46.3429V10.7143C55.7368 9.76708 55.3625 8.85868 54.6963 8.1889C54.0301 7.51913 53.1264 7.14286 52.1842 7.14286H16.6579C15.7157 7.14286 14.8121 7.51913 14.1458 8.1889C13.4796 8.85868 13.1053 9.76708 13.1053 10.7143V84.5238C13.1053 86.4952 14.6968 88.0952 16.6579 88.0952L42.63 88.1C43.9895 90.7238 45.7137 93.1286 47.7316 95.2429L16.6579 95.2381C13.8312 95.2381 11.1204 94.1093 9.12163 92.1C7.12288 90.0906 6 87.3654 6 84.5238V10.7143C6 7.87268 7.12288 5.14746 9.12163 3.13814C11.1204 1.12882 13.8312 0 16.6579 0H52.1842ZM28.4953 73.8286L39.1579 73.8048C39.1579 76.2667 39.4421 78.6619 39.9821 80.9476L28.5047 80.9714C27.5625 80.9727 26.6584 80.5976 25.9913 79.9288C25.3241 79.2599 24.9486 78.352 24.9474 77.4048C24.9461 76.4576 25.3192 75.5486 25.9846 74.878C26.6499 74.2073 27.553 73.8298 28.4953 73.8286V73.8286ZM65.2105 57.1429C64.5824 57.1429 63.98 57.3937 63.5358 57.8402C63.0916 58.2867 62.8421 58.8923 62.8421 59.5238V78.5714C62.8421 79.2029 63.0916 79.8085 63.5358 80.255C63.98 80.7015 64.5824 80.9524 65.2105 80.9524H79.4305C80.0587 80.9524 80.6611 80.7015 81.1053 80.255C81.5494 79.8085 81.799 79.2029 81.799 78.5714C81.799 77.94 81.5494 77.3344 81.1053 76.8878C80.6611 76.4413 80.0587 76.1905 79.4305 76.1905H67.5789V59.5238C67.5789 58.8923 67.3294 58.2867 66.8853 57.8402C66.4411 57.3937 65.8387 57.1429 65.2105 57.1429Z" fill="#EC8539"/>
</svg>
